app/dist/common/images/capital-bancorp.svg

<svg height="18" viewBox="0 0 18 18" width="18" xmlns="http://www.w3.org/2000/svg"><path d="m0 0h18v18h-18z" fill="#f0f3fa"/><path d="m5 4h8v10h-8z" fill="#08276a"/><path d="m9.5 5h3.5v1h-3.5a2.43 2.43 0 0 0 -2.5 2.5c0 1.19.65 2.5 2 2.5.9 0 2-.45 2-1.5 0-1.02-.53-1.5-1.5-1.5-.1 0-.5 0-.5.5 0 .3.2.5.5.5v1c-.84 0-1.5-.5-1.5-1.5 0-.5.45-1.5 1.5-1.5 1.5 0 2.5.96 2.5 2.5 0 1.62-1.53 2.5-3 2.5-1.9 0-3-1.76-3-3.5 0-1.98 1.52-3.5 3.5-3.5z" fill="#de9c01"/></svg>

<!-- by TradingView --><svg width="18" height="18" viewBox="0 0 18 18" xmlns="http://www.w3.org/2000/svg"><path fill="#F0F3FA" d="M0 0h18v18H0z"/><path fill="#08276A" d="M5 4h8v10H5z"/><path d="M9.5 5H13v1H9.5A2.43 2.43 0 0 0 7 8.5c0 1.19.65 2.5 2 2.5.9 0 2-.45 2-1.5C11 8.48 10.47 8 9.5 8c-.1 0-.5 0-.5.5 0 .3.2.5.5.5v1C8.66 10 8 9.5 8 8.5 8 8 8.45 7 9.5 7 11 7 12 7.96 12 9.5c0 1.62-1.53 2.5-3 2.5-1.9 0-3-1.76-3-3.5C6 6.52 7.52 5 9.5 5Z" fill="#DE9C01"/></svg>
